images/dlpducktoken.svg

<svg height="250" viewBox="0 0 250 250" width="250" xmlns="http://www.w3.org/2000/svg" xmlns:xlink="http://www.w3.org/1999/xlink"><radialGradient id="a" cx="103.281303" cy="177.621506" gradientTransform="matrix(.651042 0 0 -.651042 43.274741 235.018888)" gradientUnits="userSpaceOnUse" r="308.587097"><stop offset="0" stop-color="#383938"/><stop offset=".1085" stop-color="#333"/><stop offset=".4926" stop-color="#222"/><stop offset=".8034" stop-color="#141414"/><stop offset="1" stop-color="#0e0e0e"/></radialGradient><path d="m124.601562 0c-66.648437 0-167.269531 248.152344 0 248.152344 167.269532 0 66.648438-248.152344 0-248.152344zm0 0" fill="url(#a)"/><path d="m88.222656 121.660156c4.277344 5.21875 11.5625 8.65625 19.832032 8.65625 1.554687 0 3.074218-.121094 4.542968-.355468 1.265625-.199219 2.234375-1.078126 2.566406-2.324219.328126-1.246094-.074218-2.5-1.070312-3.304688-4.089844-3.320312-6.710938-8.414062-6.710938-14.121093 0-10.007813 8.039063-18.117188 17.957032-18.117188 7.921875 0 14.640625 6.910156 17.023437 13.40625l6.367188-2.734375c.757812-.324219 1.5625-.246094 2.246093.214844.683594.464843 1.0625 1.1875 1.050782 2.019531-.03125 2.460938-1.042969 4.679688-2.65625 6.289062.488281.074219.941406.285157 1.3125.664063.597656.609375.824218 1.421875.621094 2.253906-.558594 2.292969-3.933594 4.054688-8.011719 4.054688-.714844 0-1.40625-.058594-2.066407-.160157-.582031.839844-1.238281 1.566407-1.929687 2.285157-.382813.402343-.527344.929687-.398437 1.476562.125.542969.492187.949219 1.015624 1.136719 17.054688 6.019531 23.386719 38.871094-18.691406 38.871094-16.210937 0-38.011718-7.390625-38.011718-27.125 0-5.039063 1.898437-9.632813 5.011718-13.085938zm46.085938-17.421875c1.320312 1.851563 3.089844 2.84375 3.953125 2.21875.859375-.625.492187-2.636719-.832031-4.488281-1.320313-1.851562-3.085938-2.84375-3.949219-2.21875s-.496094 2.636719.828125 4.488281zm0 0" fill="#eaa425"/></svg>

<!-- Generator: Adobe Illustrator 17.0.0, SVG Export Plug-In . SVG Version: 6.00 Build 0)  -->
<svg xmlns="http://www.w3.org/2000/svg" xmlns:xlink="http://www.w3.org/1999/xlink" width="250px" height="250px" viewBox="0 0 250 250" version="1.1">
<defs>
<radialGradient id="radial0" gradientUnits="userSpaceOnUse" cx="103.281303" cy="177.621506" fx="103.281303" fy="177.621506" r="308.587097" gradientTransform="matrix(0.651042,0,0,-0.651042,43.274741,235.018888)">
<stop offset="0" style="stop-color:rgb(21.960784%,22.352941%,21.960784%);stop-opacity:1;"/>
<stop offset="0.1085" style="stop-color:rgb(20%,20%,20%);stop-opacity:1;"/>
<stop offset="0.4926" style="stop-color:rgb(13.333334%,13.333334%,13.333334%);stop-opacity:1;"/>
<stop offset="0.8034" style="stop-color:rgb(7.843138%,7.843138%,7.843138%);stop-opacity:1;"/>
<stop offset="1" style="stop-color:rgb(5.490196%,5.490196%,5.490196%);stop-opacity:1;"/>
</radialGradient>
</defs>
<g id="surface1">
<path style=" stroke:none;fill-rule:nonzero;fill:url(#radial0);" d="M 124.601562 0 C 57.953125 0 -42.667969 248.152344 124.601562 248.152344 C 291.871094 248.152344 191.25 0 124.601562 0 Z M 124.601562 0 "/>
<path style=" stroke:none;fill-rule:nonzero;fill:rgb(91.764706%,64.313728%,14.509805%);fill-opacity:1;" d="M 88.222656 121.660156 C 92.5 126.878906 99.785156 130.316406 108.054688 130.316406 C 109.609375 130.316406 111.128906 130.195312 112.597656 129.960938 C 113.863281 129.761719 114.832031 128.882812 115.164062 127.636719 C 115.492188 126.390625 115.089844 125.136719 114.09375 124.332031 C 110.003906 121.011719 107.382812 115.917969 107.382812 110.210938 C 107.382812 100.203125 115.421875 92.09375 125.339844 92.09375 C 133.261719 92.09375 139.980469 99.003906 142.363281 105.5 L 148.730469 102.765625 C 149.488281 102.441406 150.292969 102.519531 150.976562 102.980469 C 151.660156 103.445312 152.039062 104.167969 152.027344 105 C 151.996094 107.460938 150.984375 109.679688 149.371094 111.289062 C 149.859375 111.363281 150.3125 111.574219 150.683594 111.953125 C 151.28125 112.5625 151.507812 113.375 151.304688 114.207031 C 150.746094 116.5 147.371094 118.261719 143.292969 118.261719 C 142.578125 118.261719 141.886719 118.203125 141.226562 118.101562 C 140.644531 118.941406 139.988281 119.667969 139.296875 120.386719 C 138.914062 120.789062 138.769531 121.316406 138.898438 121.863281 C 139.023438 122.40625 139.390625 122.8125 139.914062 123 C 156.96875 129.019531 163.300781 161.871094 121.222656 161.871094 C 105.011719 161.871094 83.210938 154.480469 83.210938 134.746094 C 83.210938 129.707031 85.109375 125.113281 88.222656 121.660156 Z M 134.308594 104.238281 C 135.628906 106.089844 137.398438 107.082031 138.261719 106.457031 C 139.121094 105.832031 138.753906 103.820312 137.429688 101.96875 C 136.109375 100.117188 134.34375 99.125 133.480469 99.75 C 132.617188 100.375 132.984375 102.386719 134.308594 104.238281 Z M 134.308594 104.238281 "/>
</g>
</svg>
